X: 305822
M: 6/8
L: 1/8
K: G
d |\
(Bd)g b2g | d2g B2e | d2B g2B | (d^c=c) A2 (f/g/) |\
(a/g/).f/.e/.d/.^c/ (d/e/).f/.g/.a/.f/ | ( ga)b g2c | cBA d2F | G2G G2 H|]
d2^c B2A | B2A G2F | (GB)e (gf)e | a2^c "^D.C."d2 |]
(B,D)G (GD)B | B2B (BA)G | (FD)A (AF)A | c2c (cB)A |\


